static/img/icons/database.svg

<svg fill="none" height="26" viewBox="0 0 26 26" width="26" xmlns="http://www.w3.org/2000/svg"><g stroke="#fff" stroke-width="1.5"><path d="m19.6 1c1.7552.19429 2.9366.63338 3.8184 1.62575 1.5816 1.77994 1.5816 4.6447 1.5816 10.37425 0 5.7296 0 8.5943-1.5816 10.3743-.8818.9924-2.0632 1.4314-3.8184 1.6257m-13.19999 0c-1.75516-.1943-2.93659-.6333-3.81838-1.6257-1.58163-1.78-1.58163-4.6447-1.58163-10.3743 0-5.72955 0-8.59431 1.58163-10.37425.88179-.99237 2.06322-1.43146 3.81838-1.62575" stroke-linecap="round" stroke-linejoin="round"/><path d="m13 9.66669c3.6819 0 6.6667-1.11929 6.6667-2.5s-2.9848-2.5-6.6667-2.5-6.66666 1.11929-6.66666 2.5 2.98476 2.5 6.66666 2.5z"/><path d="m8.83334 12.0349c.50132.1506 1.06195.2748 1.66666.3665" stroke-linecap="round"/><path d="m19.6667 13c0 1.3808-2.9848 2.5-6.6667 2.5s-6.66666-1.1192-6.66666-2.5"/><path d="m8.83334 17.8682c.50132.1506 1.06195.2748 1.66666.3665" stroke-linecap="round"/><path d="m19.6667 7.16669v11.66671c0 1.3807-2.9848 2.5-6.6667 2.5s-6.66666-1.1193-6.66666-2.5v-11.66671"/></g></svg>

<svg width="26" height="26" viewBox="0 0 26 26" fill="none" xmlns="http://www.w3.org/2000/svg">
<path d="M19.6 1C21.3552 1.19429 22.5366 1.63338 23.4184 2.62575C25 4.40569 25 7.27045 25 13C25 18.7296 25 21.5943 23.4184 23.3743C22.5366 24.3667 21.3552 24.8057 19.6 25M6.40001 25C4.64485 24.8057 3.46342 24.3667 2.58163 23.3743C1 21.5943 1 18.7296 1 13C1 7.27045 1 4.40569 2.58163 2.62575C3.46342 1.63338 4.64485 1.19429 6.40001 1" stroke="white" stroke-width="1.5" stroke-linecap="round" stroke-linejoin="round"/>
<path d="M13 9.66669C16.6819 9.66669 19.6667 8.5474 19.6667 7.16669C19.6667 5.78598 16.6819 4.66669 13 4.66669C9.3181 4.66669 6.33334 5.78598 6.33334 7.16669C6.33334 8.5474 9.3181 9.66669 13 9.66669Z" stroke="white" stroke-width="1.5"/>
<path d="M8.83334 12.0349C9.33466 12.1855 9.89529 12.3097 10.5 12.4014" stroke="white" stroke-width="1.5" stroke-linecap="round"/>
<path d="M19.6667 13C19.6667 14.3808 16.6819 15.5 13 15.5C9.3181 15.5 6.33334 14.3808 6.33334 13" stroke="white" stroke-width="1.5"/>
<path d="M8.83334 17.8682C9.33466 18.0188 9.89529 18.143 10.5 18.2347" stroke="white" stroke-width="1.5" stroke-linecap="round"/>
<path d="M19.6667 7.16669V18.8334C19.6667 20.2141 16.6819 21.3334 13 21.3334C9.3181 21.3334 6.33334 20.2141 6.33334 18.8334V7.16669" stroke="white" stroke-width="1.5"/>
</svg>
